src/assets/outline/Backward.svg

<svg width="24" height="24" viewBox="0 0 24 24"  xmlns="http://www.w3.org/2000/svg">
<path d="M20.05 18.3601C19.59 18.3601 19.12 18.2401 18.7 17.9901L12.36 14.3301C12.07 14.1601 11.84 13.9601 11.67 13.7401C11.56 13.6101 11.5 13.4401 11.5 13.2701V10.7101C11.5 10.5401 11.56 10.3701 11.67 10.2401C11.85 10.0201 12.08 9.82007 12.36 9.66007L18.71 5.99006C19.55 5.50006 20.56 5.50006 21.41 5.99006C22.26 6.48006 22.76 7.35005 22.76 8.33005V15.6501C22.76 16.6301 22.26 17.5001 21.41 17.9901C20.98 18.2401 20.51 18.3601 20.05 18.3601ZM12.99 12.9601C13.03 12.9901 13.07 13.0201 13.11 13.0401L19.44 16.6901C19.82 16.9101 20.27 16.9101 20.64 16.6901C21.02 16.4701 21.24 16.0801 21.24 15.6501V8.33005C21.24 7.90005 21.02 7.51008 20.64 7.29008C20.26 7.07008 19.82 7.07008 19.44 7.29008L13.1 10.9501C13.06 10.9701 13.02 11.0001 12.99 11.0301V12.9601Z" />
<path d="M10.29 18.3601C9.83001 18.3601 9.36 18.2401 8.94 17.9901L2.60001 14.3301C1.76001 13.8401 1.25 12.9701 1.25 11.9901C1.25 11.0101 1.75001 10.1401 2.60001 9.65006L8.94 5.99006C9.78 5.50006 10.79 5.50006 11.64 5.99006C12.49 6.48006 12.99 7.35005 12.99 8.33005V15.6501C12.99 16.6301 12.49 17.5001 11.64 17.9901C11.22 18.2401 10.75 18.3601 10.29 18.3601ZM10.29 7.14008C10.08 7.14008 9.88 7.19006 9.69 7.30006L3.35001 10.9601C2.97001 11.1801 2.75 11.5701 2.75 12.0001C2.75 12.4301 2.97001 12.8201 3.35001 13.0401L9.69 16.7001C10.07 16.9201 10.52 16.9201 10.89 16.7001C11.27 16.4801 11.49 16.1001 11.49 15.6601V8.34006C11.49 7.91006 11.27 7.52006 10.89 7.30006C10.7 7.19006 10.5 7.14008 10.29 7.14008Z" />
</svg>

<?xml version="1.0" encoding="UTF-8"?>
<svg width="24" height="24" viewBox="0 0 24 24" xmlns="http://www.w3.org/2000/svg">
 <path d="m20.05 18.36c-0.46 0-0.93-0.12-1.35-0.37l-6.34-3.66c-0.29-0.17-0.52-0.37-0.69-0.59-0.11-0.13-0.17-0.3-0.17-0.47v-2.56c0-0.17 0.06-0.34 0.17-0.47 0.18-0.22 0.41-0.42003 0.69-0.58003l6.35-3.67c0.84-0.49 1.85-0.49 2.7 0s1.35 1.36 1.35 2.34v7.32c0 0.98-0.5 1.85-1.35 2.34-0.43 0.25-0.9 0.37-1.36 0.37zm-7.06-5.4c0.04 0.03 0.08 0.06 0.12 0.08l6.33 3.65c0.38 0.22 0.83 0.22 1.2 0 0.38-0.22 0.6-0.61 0.6-1.04v-7.32c0-0.43-0.22-0.81997-0.6-1.04s-0.82-0.22-1.2 0l-6.34 3.66c-0.04 0.02-0.08 0.05-0.11 0.08v1.93z"/>
 <path d="m10.29 18.36c-0.45999 0-0.93-0.12-1.35-0.37l-6.34-3.66c-0.84-0.49-1.35-1.36-1.35-2.34s0.50001-1.85 1.35-2.34l6.34-3.66c0.84-0.49 1.85-0.49 2.7 0s1.35 1.36 1.35 2.34v7.32c0 0.98-0.5 1.85-1.35 2.34-0.42 0.25-0.89 0.37-1.35 0.37zm0-11.22c-0.21 0-0.41 0.04998-0.6 0.15998l-6.34 3.66c-0.38 0.22-0.60001 0.61-0.60001 1.04s0.22001 0.82 0.60001 1.04l6.34 3.66c0.38 0.22 0.83 0.22 1.2 0 0.38-0.22 0.6-0.6 0.6-1.04v-7.32c0-0.43-0.22-0.82-0.6-1.04-0.19-0.11-0.39-0.15998-0.6-0.15998z"/>
</svg>
